images/link/link-normal.svg

<svg xmlns="http://www.w3.org/2000/svg" width="504" height="100" viewBox="0 0 504 100">
  <g fill="none" fill-rule="evenodd">
    <path fill="#0060DF" d="M208.634277 55.8134766L203.536621 55.8134766 203.536621 46.4311523 202.218262 46.4311523 202.218262 57 208.634277 57 208.634277 55.8134766zM213.724609 50.0786133C212.464844 50.0786133 211.585938 51.0014648 211.490723 52.4003906L215.841309 52.4003906C215.812012 51.0014648 214.977051 50.0786133 213.724609 50.0786133zM215.804688 54.956543L217.064453 54.956543C216.683594 56.3115234 215.467773 57.1391602 213.739258 57.1391602 211.549316 57.1391602 210.179688 55.5571289 210.179688 53.0595703 210.179688 50.5766602 211.571289 48.965332 213.739258 48.965332 215.870605 48.965332 217.166992 50.4814453 217.166992 52.9350586L217.166992 53.418457 211.490723 53.418457 211.490723 53.4770508C211.556641 55.0371094 212.428223 56.0258789 213.768555 56.0258789 214.786621 56.0258789 215.475098 55.6523438 215.804688 54.956543zM221.576172 56.0332031C222.872559 56.0332031 223.832031 55.1835938 223.832031 54.0556641L223.832031 53.3305664 221.708008 53.4697266C220.506836 53.550293 219.979492 53.9677734 219.979492 54.7587891 219.979492 55.5644531 220.660645 56.0332031 221.576172 56.0332031zM221.341797 57.1391602C219.811035 57.1391602 218.675781 56.230957 218.675781 54.7880859 218.675781 53.3745117 219.71582 52.5615234 221.554199 52.4516602L223.832031 52.3125 223.832031 51.5947266C223.832031 50.6206055 223.224121 50.0859375 222.044922 50.0859375 221.100098 50.0859375 220.440918 50.4448242 220.265137 51.0673828L218.990723 51.0673828C219.15918 49.800293 220.404297 48.965332 222.088867 48.965332 224.015137 48.965332 225.091797 49.9541016 225.091797 51.5947266L225.091797 57 223.890625 57 223.890625 55.8354492 223.773438 55.8354492C223.260742 56.6777344 222.396484 57.1391602 221.341797 57.1391602zM227.420898 57L228.680664 57 228.680664 52.1074219C228.680664 50.9941406 229.552246 50.1884766 230.753418 50.1884766 231.002441 50.1884766 231.456543 50.2324219 231.559082 50.2617188L231.559082 49.0019531C231.397949 48.9799805 231.134277 48.965332 230.929199 48.965332 229.881836 48.965332 228.973633 49.5073242 228.739258 50.2763672L228.62207 50.2763672 228.62207 49.1044922 227.420898 49.1044922 227.420898 57zM233.133789 57L234.393555 57 234.393555 52.3271484C234.393555 50.9428711 235.206543 50.1005859 236.466309 50.1005859 237.726074 50.1005859 238.32666 50.7744141 238.32666 52.1953125L238.32666 57 239.586426 57 239.586426 51.8876953C239.586426 50.0126953 238.597656 48.965332 236.825195 48.965332 235.616699 48.965332 234.847656 49.4780273 234.452148 50.3496094L234.334961 50.3496094 234.334961 49.1044922 233.133789 49.1044922 233.133789 57zM246.119629 57L247.379395 57 247.379395 52.1074219C247.379395 50.9941406 248.177734 50.1005859 249.210449 50.1005859 250.206543 50.1005859 250.858398 50.7011719 250.858398 51.6386719L250.858398 57 252.118164 57 252.118164 51.9243164C252.118164 50.9208984 252.850586 50.1005859 253.949219 50.1005859 255.0625 50.1005859 255.611816 50.671875 255.611816 51.8364258L255.611816 57 256.871582 57 256.871582 51.543457C256.871582 49.8881836 255.970703 48.965332 254.359375 48.965332 253.268066 48.965332 252.367188 49.5146484 251.942383 50.3496094L251.825195 50.3496094C251.458984 49.5292969 250.711914 48.965332 249.642578 48.965332 248.587891 48.965332 247.796875 49.4707031 247.437988 50.3496094L247.320801 50.3496094 247.320801 49.1044922 246.119629 49.1044922 246.119629 57zM262.416016 57.1391602C260.16748 57.1391602 258.775879 55.5864258 258.775879 53.0522461 258.775879 50.5107422 260.16748 48.965332 262.416016 48.965332 264.664551 48.965332 266.056152 50.5107422 266.056152 53.0522461 266.056152 55.5864258 264.664551 57.1391602 262.416016 57.1391602zM262.416016 56.0039062C263.910156 56.0039062 264.752441 54.9199219 264.752441 53.0522461 264.752441 51.1772461 263.910156 50.1005859 262.416016 50.1005859 260.921875 50.1005859 260.07959 51.1772461 260.07959 53.0522461 260.07959 54.9199219 260.921875 56.0039062 262.416016 56.0039062zM268.033691 57L269.293457 57 269.293457 52.1074219C269.293457 50.9941406 270.165039 50.1884766 271.366211 50.1884766 271.615234 50.1884766 272.069336 50.2324219 272.171875 50.2617188L272.171875 49.0019531C272.010742 48.9799805 271.74707 48.965332 271.541992 48.965332 270.494629 48.965332 269.586426 49.5073242 269.352051 50.2763672L269.234863 50.2763672 269.234863 49.1044922 268.033691 49.1044922 268.033691 57zM276.895996 50.0786133C275.63623 50.0786133 274.757324 51.0014648 274.662109 52.4003906L279.012695 52.4003906C278.983398 51.0014648 278.148438 50.0786133 276.895996 50.0786133zM278.976074 54.956543L280.23584 54.956543C279.85498 56.3115234 278.63916 57.1391602 276.910645 57.1391602 274.720703 57.1391602 273.351074 55.5571289 273.351074 53.0595703 273.351074 50.5766602 274.742676 48.965332 276.910645 48.965332 279.041992 48.965332 280.338379 50.4814453 280.338379 52.9350586L280.338379 53.418457 274.662109 53.418457 274.662109 53.4770508C274.728027 55.0371094 275.599609 56.0258789 276.939941 56.0258789 277.958008 56.0258789 278.646484 55.6523438 278.976074 54.956543zM348.217285 54.9130859L348.217285 53.6240234 343.932617 53.6240234 343.932617 54.78125 346.90625 54.78125 346.90625 55.0375977C346.90625 56.824707 345.624512 58.0332031 343.734863 58.0332031 341.61084 58.0332031 340.29248 56.3779297 340.29248 53.7119141 340.29248 51.0825195 341.632812 49.3979492 343.727539 49.3979492 345.294922 49.3979492 346.356934 50.1523438 346.811035 51.5805664L348.151367 51.5805664C347.770508 49.4858398 346.071289 48.1821289 343.727539 48.1821289 340.834473 48.1821289 338.9375 50.3720703 338.9375 53.7119141 338.9375 57.0957031 340.805176 59.2490234 343.727539 59.2490234 346.430176 59.2490234 348.217285 57.5205078 348.217285 54.9130859zM350.414551 59L351.674316 59 351.674316 51.1044922 350.414551 51.1044922 350.414551 59zM351.044434 49.5004883C351.527832 49.5004883 351.92334 49.1049805 351.92334 48.621582 351.92334 48.1381836 351.527832 47.7426758 351.044434 47.7426758 350.561035 47.7426758 350.165527 48.1381836 350.165527 48.621582 350.165527 49.1049805 350.561035 49.5004883 351.044434 49.5004883zM354.604004 49.0610352L354.604004 51.1044922 353.32959 51.1044922 353.32959 52.1591797 354.604004 52.1591797 354.604004 56.9492188C354.604004 58.4580078 355.255859 59.0585938 356.881836 59.0585938 357.130859 59.0585938 357.372559 59.0292969 357.621582 58.9853516L357.621582 57.9233398C357.387207 57.9453125 357.262695 57.9526367 357.035645 57.9526367 356.215332 57.9526367 355.86377 57.5571289 355.86377 56.6269531L355.86377 52.1591797 357.621582 52.1591797 357.621582 51.1044922 355.86377 51.1044922 355.86377 49.0610352 354.604004 49.0610352zM359.599121 59L360.858887 59 360.858887 54.3271484C360.858887 52.9941406 361.635254 52.1005859 363.048828 52.1005859 364.242676 52.1005859 364.872559 52.7963867 364.872559 54.1953125L364.872559 59 366.132324 59 366.132324 53.8876953C366.132324 52.034668 365.077637 50.965332 363.407715 50.965332 362.199219 50.965332 361.371582 51.4780273 360.976074 52.3496094L360.858887 52.3496094 360.858887 47.9697266 359.599121 47.9697266 359.599121 59zM374.818848 51.1044922L373.559082 51.1044922 373.559082 55.7773438C373.559082 57.1616211 372.797363 57.9892578 371.405762 57.9892578 370.145996 57.9892578 369.618652 57.3300781 369.618652 55.9091797L369.618652 51.1044922 368.358887 51.1044922 368.358887 56.2167969C368.358887 58.0844727 369.281738 59.1391602 371.054199 59.1391602 372.262695 59.1391602 373.10498 58.6411133 373.500488 57.762207L373.617676 57.762207 373.617676 59 374.818848 59 374.818848 51.1044922zM381.117676 59.1391602C380.019043 59.1391602 379.081543 58.6191406 378.583496 57.7402344L378.466309 57.7402344 378.466309 59 377.265137 59 377.265137 47.9697266 378.524902 47.9697266 378.524902 52.3496094 378.64209 52.3496094C379.074219 51.5 380.033691 50.965332 381.117676 50.965332 383.124512 50.965332 384.428223 52.5693359 384.428223 55.0522461 384.428223 57.5205078 383.117188 59.1391602 381.117676 59.1391602zM380.824707 52.1005859C379.38916 52.1005859 378.495605 53.2285156 378.495605 55.0522461 378.495605 56.8759766 379.38916 58.0039062 380.824707 58.0039062 382.267578 58.0039062 383.124512 56.8979492 383.124512 55.0522461 383.124512 53.206543 382.267578 52.1005859 380.824707 52.1005859z"/>
    <g fill="#0060DF" fill-rule="nonzero" transform="translate(391 46)">
      <path d="M13.9231352,0.616914847 C13.7689608,0.243924095 13.4053543,0.000469224868 13.0017559,0 L8.01053546,0 C7.45922048,0 7.01229137,0.446929102 7.01229137,0.99824409 C7.01229137,1.54955908 7.45922048,1.99648818 8.01053546,1.99648818 L10.5919947,1.99648818 L7.30477689,5.28370597 C7.04527677,5.53433957 6.94120382,5.90549014 7.03255857,6.25450565 C7.12391331,6.60352117 7.39647883,6.87608669 7.74549435,6.96744143 C8.09450986,7.05879618 8.46566043,6.95472323 8.71629403,6.69522311 L12.0035118,3.40800532 L12.0035118,5.98946454 C12.0035118,6.54077952 12.4504409,6.98770863 13.0017559,6.98770863 C13.5530709,6.98770863 14,6.54077952 14,5.98946454 L14,0.99824409 C13.9996322,0.86732372 13.9735148,0.737754309 13.9231352,0.616914847 L13.9231352,0.616914847 Z"/>
      <path d="M13,9 C12.4477153,9 12,9.44771525 12,10 L12,12 L2,12 L2,2 L4,2 C4.55228475,2 5,1.55228475 5,1 C5,0.44771525 4.55228475,0 4,0 L1,0 C0.44771525,0 0,0.44771525 0,1 L0,13 C0,13.5522847 0.44771525,14 1,14 L13,14 C13.5522847,14 14,13.5522847 14,13 L14,10 C14,9.44771525 13.5522847,9 13,9 Z"/>
    </g>
    <rect width="51" height="22" x="73" y="41" fill="#0A84FF" rx="2"/>
    <polygon fill="#0A84FF" points="120 52 124 48 128 52 124 56"/>
    <path fill="#FFF" d="M79.344,49.16 L81.924,56 L83.748,56 L83.748,47.72 L82.5,47.72 L82.5,51.488 C82.5,52.976 82.644,54.26 82.704,54.584 L82.656,54.584 L80.064,47.72 L78.252,47.72 L78.252,56 L79.5,56 L79.5,52.244 C79.5,50.9 79.344,49.448 79.296,49.16 L79.344,49.16 Z M88.212,49.496 C90.06,49.496 91.068,50.804 91.068,52.82 C91.068,54.836 90.036,56.156 88.2,56.156 C86.352,56.156 85.332,54.884 85.332,52.832 C85.332,50.852 86.364,49.496 88.212,49.496 Z M88.212,50.54 C87.24,50.54 86.748,51.26 86.748,52.832 C86.748,54.404 87.228,55.124 88.2,55.124 C89.172,55.124 89.652,54.404 89.652,52.82 C89.652,51.26 89.172,50.54 88.212,50.54 Z M92.844,56 L97.32,56 L97.32,55.016 L95.604,55.016 L95.604,52.448 C95.808,51.572 96.396,50.816 97.212,50.816 C97.5,50.816 97.692,50.852 97.944,50.924 L98.184,49.604 C97.896,49.532 97.68,49.508 97.368,49.508 C96.6,49.508 95.916,49.988 95.58,50.864 L95.436,49.664 L92.844,49.664 L92.844,50.648 L94.248,50.648 L94.248,55.016 L92.844,55.016 L92.844,56 Z M104.436,49.496 C103.824,49.496 103.404,49.82 103.044,50.3 C102.864,49.7 102.444,49.496 101.964,49.496 C101.352,49.496 100.968,49.844 100.608,50.348 L100.512,49.664 L99.492,49.664 L99.492,56 L100.704,56 L100.704,51.176 C101.016,50.72 101.316,50.552 101.64,50.552 C102.012,50.552 102.06,50.816 102.06,51.476 L102.06,56 L103.152,56 L103.152,51.176 C103.464,50.72 103.776,50.552 104.088,50.552 C104.46,50.552 104.508,50.816 104.508,51.476 L104.508,56 L105.708,56 L105.708,51.296 C105.708,49.892 105.156,49.496 104.436,49.496 Z M112.116,51.62 L112.116,54.44 C112.116,54.944 112.26,55.136 112.596,55.244 L112.284,56.156 C111.672,56.084 111.204,55.832 110.976,55.28 C110.508,55.868 109.764,56.156 108.948,56.156 C107.664,56.156 106.872,55.364 106.872,54.188 C106.872,52.856 107.952,52.112 109.884,52.112 L110.784,52.112 L110.784,51.704 C110.784,50.876 110.268,50.552 109.38,50.552 C108.96,50.552 108.336,50.648 107.7,50.876 L107.364,49.928 C108.156,49.628 108.936,49.496 109.584,49.496 C111.288,49.496 112.116,50.288 112.116,51.62 Z M109.356,55.172 C109.908,55.172 110.472,54.872 110.784,54.344 L110.784,52.952 L110.04,52.952 C108.78,52.952 108.288,53.396 108.288,54.14 C108.288,54.812 108.648,55.172 109.356,55.172 Z M117.252,47.12 L114,47.12 L114,48.104 L115.908,48.104 L115.908,54.152 C115.908,55.4 116.652,56.156 117.924,56.156 C118.632,56.156 119.184,56 119.556,55.796 L119.22,54.86 C118.896,54.98 118.572,55.064 118.212,55.064 C117.648,55.064 117.252,54.848 117.252,54.272 L117.252,47.12 Z"/>
  </g>
</svg>

<svg xmlns="http://www.w3.org/2000/svg" style="background:#f9f9fa" viewBox="0 0 504 100"><g fill="none" fill-rule="evenodd"><path fill="#0060DF" d="M208.63 55.81h-5.1v-9.38h-1.31V57h6.41v-1.19zm5.1-5.73c-1.27 0-2.14.92-2.24 2.32h4.35c-.03-1.4-.86-2.32-2.12-2.32zm2.07 4.88h1.26c-.38 1.35-1.6 2.18-3.32 2.18-2.2 0-3.56-1.58-3.56-4.08 0-2.48 1.4-4.1 3.56-4.1 2.13 0 3.43 1.52 3.43 3.98v.48h-5.68v.06c.07 1.56.94 2.55 2.28 2.55 1.02 0 1.7-.38 2.03-1.07zm5.78 1.07c1.3 0 2.25-.85 2.25-1.97v-.73l-2.12.14c-1.2.08-1.73.5-1.73 1.29 0 .8.68 1.27 1.6 1.27zm-.24 1.1c-1.53 0-2.66-.9-2.66-2.34 0-1.42 1.04-2.23 2.87-2.34l2.28-.14v-.72c0-.97-.6-1.5-1.79-1.5-.94 0-1.6.35-1.77.98h-1.28c.17-1.27 1.41-2.1 3.1-2.1 1.93 0 3 .98 3 2.62V57h-1.2v-1.16h-.12a2.73 2.73 0 0 1-2.43 1.3zm6.08-.13h1.26v-4.9c0-1.1.87-1.91 2.07-1.91.25 0 .7.04.8.07V49a5.41 5.41 0 0 0-.62-.03c-1.05 0-1.96.54-2.2 1.3h-.1V49.1h-1.2V57zm5.71 0h1.26v-4.67c0-1.39.82-2.23 2.08-2.23 1.26 0 1.86.67 1.86 2.1V57h1.26v-5.11c0-1.88-1-2.92-2.76-2.92-1.21 0-1.98.5-2.38 1.38h-.12V49.1h-1.2V57zm12.99 0h1.26v-4.9c0-1.1.8-2 1.83-2 1 0 1.65.6 1.65 1.54V57h1.26v-5.08c0-1 .73-1.82 1.83-1.82 1.11 0 1.66.57 1.66 1.74V57h1.26v-5.46c0-1.65-.9-2.57-2.51-2.57-1.1 0-2 .54-2.42 1.38h-.11a2.28 2.28 0 0 0-2.19-1.38c-1.05 0-1.84.5-2.2 1.38h-.12V49.1h-1.2V57zm16.3.14c-2.25 0-3.64-1.55-3.64-4.09s1.39-4.08 3.64-4.08c2.24 0 3.64 1.54 3.64 4.08s-1.4 4.09-3.64 4.09zm0-1.14c1.49 0 2.33-1.08 2.33-2.95s-.84-2.95-2.33-2.95c-1.5 0-2.34 1.08-2.34 2.95s.84 2.95 2.34 2.95zm5.61 1h1.26v-4.9c0-1.1.88-1.91 2.08-1.91.25 0 .7.04.8.07V49a5.41 5.41 0 0 0-.63-.03c-1.05 0-1.95.54-2.19 1.3h-.12V49.1h-1.2V57zm8.87-6.92c-1.26 0-2.14.92-2.24 2.32h4.35c-.03-1.4-.86-2.32-2.11-2.32zm2.08 4.88h1.26c-.39 1.35-1.6 2.18-3.33 2.18-2.19 0-3.56-1.58-3.56-4.08 0-2.48 1.4-4.1 3.56-4.1 2.13 0 3.43 1.52 3.43 3.98v.48h-5.68v.06c.07 1.56.94 2.55 2.28 2.55 1.02 0 1.7-.38 2.04-1.07zm69.24-.05v-1.29h-4.29v1.16h2.98v.26c0 1.78-1.29 3-3.18 3-2.12 0-3.44-1.66-3.44-4.33 0-2.63 1.34-4.31 3.44-4.31 1.56 0 2.63.75 3.08 2.18h1.34c-.38-2.1-2.08-3.4-4.42-3.4-2.9 0-4.8 2.2-4.8 5.53 0 3.39 1.88 5.54 4.8 5.54 2.7 0 4.49-1.73 4.49-4.34zm2.2 4.09h1.25v-7.9h-1.26V59zm.62-9.5a.88.88 0 0 0 0-1.76.88.88 0 0 0 0 1.76zm3.56-.44v2.04h-1.27v1.06h1.27v4.79c0 1.5.66 2.1 2.28 2.1.25 0 .5-.02.74-.06v-1.07c-.23.03-.36.03-.58.03-.82 0-1.18-.4-1.18-1.32v-4.47h1.76V51.1h-1.76v-2.04h-1.26zm5 9.94h1.26v-4.67c0-1.34.78-2.23 2.19-2.23 1.2 0 1.82.7 1.82 2.1V59h1.26v-5.11c0-1.86-1.05-2.92-2.72-2.92-1.21 0-2.04.5-2.43 1.38h-.12v-4.38h-1.26V59zm15.22-7.9h-1.26v4.68c0 1.38-.76 2.2-2.15 2.2-1.26 0-1.8-.65-1.8-2.07v-4.8h-1.25v5.1c0 1.87.92 2.93 2.7 2.93 1.2 0 2.04-.5 2.44-1.38h.12V59h1.2v-7.9zm6.3 8.04c-1.1 0-2.04-.52-2.54-1.4h-.11V59h-1.2V47.97h1.25v4.38h.12a2.73 2.73 0 0 1 2.48-1.38c2 0 3.3 1.6 3.3 4.08 0 2.47-1.3 4.09-3.3 4.09zm-.3-7.04c-1.43 0-2.32 1.13-2.32 2.95 0 1.83.89 2.95 2.32 2.95 1.45 0 2.3-1.1 2.3-2.95 0-1.84-.85-2.95-2.3-2.95z"/><g transform="translate(391 47)"><path fill="#0060DF" fill-rule="nonzero" d="M4 0H3a3 3 0 0 0-3 3v8a3 3 0 0 0 3 3h8a3 3 0 0 0 3-3v-1a1 1 0 0 0-2 0v1a1 1 0 0 1-1 1H3a1 1 0 0 1-1-1V3a1 1 0 0 1 1-1h1a1 1 0 1 0 0-2z"/><path fill="#0060DF" fill-rule="nonzero" d="M13.01 0h-5a1 1 0 1 0 0 2h2.59L7.3 5.3a1 1 0 1 0 1.42 1.4l3.3-3.29V6a1 1 0 1 0 2 0V1a1 1 0 0 0-1-1z"/></g><g transform="translate(73 41)"><rect width="51" height="22" fill="#0A84FF" rx="2"/><polygon fill="#0A84FF" points="47 11 51 7 55 11 51 15"/><path fill="#FFFFFF" d="M6.3 5.96c.12 1.3.19 2.4.19 3.28V13H5.25V4.72h1.81l2.64 7.04-.13-1.6C9.53 9.7 9.5 9.13 9.5 8.5V4.72h1.24V13H8.94L6.3 5.96zm11.02 1.43c.5.6.75 1.4.75 2.43 0 1.02-.25 1.84-.76 2.44-.5.6-1.2.9-2.11.9-.91 0-1.62-.3-2.12-.89-.5-.58-.75-1.4-.75-2.44 0-1 .26-1.81.76-2.42a2.6 2.6 0 0 1 2.12-.91c.91 0 1.62.3 2.11.89zm-3.2.71c-.25.38-.37.96-.37 1.73 0 .79.12 1.36.36 1.74.24.37.6.55 1.09.55.49 0 .85-.18 1.1-.56.23-.38.35-.96.35-1.74s-.12-1.35-.36-1.72a1.2 1.2 0 0 0-1.08-.56c-.49 0-.85.19-1.1.56zm11.2-1.44L25.09 9h-.96V7.7c-.44.02-.82.2-1.15.54-.32.34-.58.82-.77 1.45v2.35h1.27V13h-3.55v-.96h.93V7.62h-.93v-.96h1.95l.24 1.47c.25-.55.55-.95.91-1.22s.8-.4 1.33-.4c.32 0 .64.05.96.15zm7.04.24c.22.28.34.74.34 1.4V13h-1.2V8.48c0-.36-.02-.6-.07-.74-.05-.13-.17-.2-.34-.2-.34 0-.65.21-.94.64V13h-1.09V8.48c0-.36-.03-.6-.08-.74-.05-.13-.16-.2-.34-.2-.34 0-.65.21-.94.64V13h-1.2V6.66h1.01l.1.69c.2-.28.4-.5.61-.64.2-.14.46-.21.74-.21.56 0 .92.26 1.08.8.2-.26.4-.45.63-.6.22-.13.48-.2.77-.2.39 0 .7.13.92.4zM39.22 12c.08.11.2.2.38.25l-.32.92c-.66-.08-1.1-.38-1.3-.88-.24.29-.53.5-.87.65a2.9 2.9 0 0 1-1.15.23c-.64 0-1.15-.18-1.52-.54a1.89 1.89 0 0 1-.57-1.43c0-.67.26-1.18.79-1.54a3.9 3.9 0 0 1 2.22-.54h.9v-.4c0-.4-.12-.7-.36-.88a1.7 1.7 0 0 0-1.04-.28 6.53 6.53 0 0 0-1.68.32l-.34-.94c.76-.29 1.5-.43 2.22-.43.84 0 1.48.18 1.9.55.42.37.64.89.64 1.57v2.83c0 .24.03.42.1.54zm-2.05-.03c.26-.15.46-.35.61-.6v-1.4h-.74c-.6 0-1.05.1-1.33.3-.28.2-.42.5-.42.88 0 .34.09.6.27.77.18.17.44.26.8.26.28 0 .55-.07.8-.21zm7.08-.69c0 .54.32.8.96.8.32 0 .66-.07 1.01-.21l.34.94c-.44.24-.99.36-1.64.36a2 2 0 0 1-1.48-.54 1.99 1.99 0 0 1-.53-1.47V5.1H41v-.98h3.25v7.15z"/></g></g></svg>
